qdrant-landing/themes/qdrant/static/images/logo_with_text_dark_bg.svg

<svg width="452" height="153" viewBox="0 0 452 153" fill="none" xmlns="http://www.w3.org/2000/svg">
<path fill-rule="evenodd" clip-rule="evenodd" d="M65.991 4.57764e-05L32.9913 19.0502L0.000366211 38.1003V114.301L32.9913 133.351L65.991 152.401L87.1014 140.22L109.541 152.401L131.981 139.451V38.1006L98.9816 19.0505L65.991 4.57764e-05Z" fill="#201D1D"/>
<path fill-rule="evenodd" clip-rule="evenodd" d="M109.542 101.35V51.0614L131.982 38.1013V139.451L109.542 152.402V101.35Z" fill="#7D8CB5"/>
<path fill-rule="evenodd" clip-rule="evenodd" d="M131.982 38.1002L109.542 51.0603L87.7618 38.4901L65.9914 25.9205L44.2115 38.4901L22.4411 51.0603L0.000732422 38.1002L32.9913 19.0501L65.9914 -1.52588e-05L98.982 19.0501L131.982 38.1002Z" fill="#B2BFE8"/>
<path fill-rule="evenodd" clip-rule="evenodd" d="M0 38.1002L22.4403 51.0603V101.349L44.2107 113.919L65.9907 126.49V152.4L32.9906 133.349L0 114.299V38.0988" fill="#D9E2FF"/>
<path fill-rule="evenodd" clip-rule="evenodd" d="M87.1013 114.301L65.991 126.491V152.401L87.1013 140.221V114.301Z" fill="#7D8CB5"/>
<path fill-rule="evenodd" clip-rule="evenodd" d="M65.991 76.2005L44.8806 64.0208L65.991 51.8305L87.1013 64.0208L65.991 76.2005Z" fill="#B2BFE8"/>
<path fill-rule="evenodd" clip-rule="evenodd" d="M44.8806 64.0225L65.991 76.2022V100.582L44.8806 88.3925V64.0225Z" fill="#D9E2FF"/>
<path fill-rule="evenodd" clip-rule="evenodd" d="M65.991 76.2005L87.1013 64.0207V88.3908L65.991 100.58V76.2005Z" fill="#7D8CB5"/>
<path fill-rule="evenodd" clip-rule="evenodd" d="M87.1014 140.219L109.541 152.4V51.0603L87.7614 38.4901L65.991 25.9205L44.2111 38.4901L22.4407 51.0603V101.349L44.2111 113.919L65.991 126.49L87.1014 114.299V140.219ZM87.1014 88.389L65.991 100.579L44.8807 88.389V64.019L65.991 51.8287L87.1014 64.019V88.389Z" fill="#C91540"/>
<path d="M212.686 116C212.686 121.523 208.209 126.001 202.686 126.001H195.85V118.193H195.606C194.874 119.25 193.898 120.348 192.678 121.486C191.539 122.544 190.157 123.52 188.53 124.415C186.985 125.309 185.236 126.041 183.284 126.611C181.413 127.18 179.461 127.464 177.428 127.464C173.036 127.464 169.051 126.732 165.472 125.268C161.893 123.723 158.803 121.608 156.2 118.924C153.679 116.159 151.727 112.906 150.344 109.165C148.961 105.423 148.27 101.316 148.27 96.8425C148.27 92.6945 148.88 88.7498 150.1 85.0085C151.401 81.1858 153.191 77.8105 155.468 74.8825C157.827 71.9545 160.673 69.6365 164.008 67.9285C167.343 66.1392 171.125 65.2445 175.354 65.2445C179.177 65.2445 182.715 65.8545 185.968 67.0745C189.303 68.2132 192.027 70.2058 194.142 73.0525H194.386V43.7685C194.386 38.2456 198.863 33.7685 204.386 33.7685H212.686V116ZM195.85 96.3545C195.85 91.8812 194.549 88.2618 191.946 85.4965C189.425 82.7312 185.846 81.3485 181.21 81.3485C176.574 81.3485 172.955 82.7312 170.352 85.4965C167.831 88.2618 166.57 91.8812 166.57 96.3545C166.57 100.828 167.831 104.447 170.352 107.212C172.955 109.978 176.574 111.361 181.21 111.361C185.846 111.361 189.425 109.978 191.946 107.212C194.549 104.447 195.85 100.828 195.85 96.3545Z" fill="#C91540"/>
<path d="M224.532 76.7085C224.532 71.1856 229.009 66.7085 234.532 66.7085H242.832V76.2245H243.076C245.028 72.5645 247.346 69.8398 250.03 68.0505C252.714 66.1798 256.089 65.2445 260.156 65.2445C261.213 65.2445 262.27 65.2852 263.328 65.3665C264.385 65.4478 265.361 65.6105 266.256 65.8545V82.5685C264.954 82.1618 263.653 81.8772 262.352 81.7145C261.132 81.4705 259.83 81.3485 258.448 81.3485C254.95 81.3485 252.185 81.8365 250.152 82.8125C248.118 83.7885 246.532 85.1712 245.394 86.9605C244.336 88.6685 243.645 90.7425 243.32 93.1825C242.994 95.6225 242.832 98.3065 242.832 101.234V116C242.832 121.523 238.355 126.001 232.832 126.001H224.532V76.7085Z" fill="#C91540"/>
<path d="M310.643 118.559H310.399C308.366 121.73 305.641 124.008 302.225 125.391C298.891 126.773 295.353 127.464 291.611 127.464C288.846 127.464 286.162 127.058 283.559 126.245C281.038 125.513 278.801 124.374 276.849 122.829C274.897 121.283 273.352 119.372 272.213 117.094C271.075 114.817 270.505 112.174 270.505 109.165C270.505 105.749 271.115 102.861 272.335 100.503C273.637 98.1438 275.345 96.1918 277.459 94.6465C279.655 93.1012 282.136 91.9218 284.901 91.1085C287.667 90.2138 290.513 89.5632 293.441 89.1565C296.451 88.7498 299.419 88.5058 302.347 88.4245C305.357 88.3432 308.122 88.3025 310.643 88.3025C310.643 85.0492 309.464 82.4872 307.105 80.6165C304.828 78.6645 302.103 77.6885 298.931 77.6885C295.922 77.6885 293.157 78.3392 290.635 79.6405C288.195 80.8605 285.999 82.5685 284.047 84.7645L274.287 74.7605C277.703 71.5885 281.689 69.2298 286.243 67.6845C290.798 66.0578 295.515 65.2445 300.395 65.2445C305.763 65.2445 310.155 65.9358 313.571 67.3185C317.069 68.6198 319.834 70.5718 321.867 73.1745C323.982 75.7772 325.446 78.9898 326.259 82.8125C327.073 86.5538 327.479 90.9052 327.479 95.8665V116.001C327.479 121.523 323.002 126.001 317.479 126.001H310.643V118.559ZM306.129 100.014C304.747 100.014 302.998 100.096 300.883 100.258C298.85 100.34 296.857 100.665 294.905 101.234C293.035 101.804 291.408 102.658 290.025 103.796C288.724 104.935 288.073 106.521 288.073 108.555C288.073 110.751 289.009 112.377 290.879 113.434C292.75 114.492 294.702 115.02 296.735 115.02C298.525 115.02 300.233 114.776 301.859 114.288C303.567 113.8 305.072 113.109 306.373 112.214C307.675 111.32 308.691 110.181 309.423 108.798C310.237 107.416 310.643 105.789 310.643 103.919V100.014H306.129Z" fill="#C91540"/>
<path d="M340.181 76.7085C340.181 71.1856 344.658 66.7085 350.181 66.7085H357.749V74.7605H357.993C358.562 73.6218 359.375 72.4832 360.433 71.3445C361.49 70.2058 362.751 69.1892 364.215 68.2945C365.679 67.3998 367.346 66.6678 369.217 66.0985C371.087 65.5292 373.121 65.2445 375.317 65.2445C379.953 65.2445 383.694 65.9765 386.541 67.4405C389.387 68.8232 391.583 70.7752 393.129 73.2965C394.755 75.8178 395.853 78.7865 396.423 82.2025C396.992 85.6185 397.277 89.3192 397.277 93.3045V116C397.277 121.523 392.8 126.001 387.277 126.001H378.977V96.9645C378.977 95.2565 378.895 93.5078 378.733 91.7185C378.651 89.8478 378.285 88.1398 377.635 86.5945C377.065 85.0492 376.13 83.7885 374.829 82.8125C373.609 81.8365 371.819 81.3485 369.461 81.3485C367.102 81.3485 365.191 81.7958 363.727 82.6905C362.263 83.5038 361.124 84.6425 360.311 86.1065C359.579 87.4892 359.091 89.0752 358.847 90.8645C358.603 92.6538 358.481 94.5245 358.481 96.4765V116C358.481 121.523 354.004 126.001 348.481 126.001H340.181V76.7085Z" fill="#C91540"/>
<path d="M451.837 71.3485C451.837 76.8713 447.36 81.3485 441.837 81.3485H435.733V101.113C435.733 102.739 435.815 104.244 435.977 105.626C436.14 106.928 436.506 108.066 437.075 109.042C437.645 110.018 438.499 110.791 439.637 111.361C440.857 111.849 442.443 112.092 444.395 112.092C445.371 112.092 446.632 112.011 448.177 111.848C449.804 111.604 451.024 111.117 451.837 110.385V119.109C451.837 123.024 449.385 126.666 445.493 127.098C443.297 127.342 441.142 127.464 439.027 127.464C435.937 127.464 433.09 127.139 430.487 126.488C427.885 125.838 425.607 124.821 423.655 123.439C421.703 121.975 420.158 120.104 419.019 117.826C417.962 115.549 417.433 112.784 417.433 109.531V81.3485H405.721V76.7085C405.721 71.1856 410.199 66.7085 415.721 66.7085H417.433V59.1405C417.433 53.6176 421.911 49.1405 427.433 49.1405H435.733V66.7085H451.837V71.3485Z" fill="#C91540"/>
</svg>

<?xml version="1.0" encoding="UTF-8" standalone="no"?>
<svg
   xmlns:dc="http://purl.org/dc/elements/1.1/"
   xmlns:cc="http://creativecommons.org/ns#"
   xmlns:rdf="http://www.w3.org/1999/02/22-rdf-syntax-ns#"
   xmlns:svg="http://www.w3.org/2000/svg"
   xmlns="http://www.w3.org/2000/svg"
   xmlns:sodipodi="http://sodipodi.sourceforge.net/DTD/sodipodi-0.dtd"
   xmlns:inkscape="http://www.inkscape.org/namespaces/inkscape"
   width="451.83701"
   height="152.40199"
   viewBox="0 0 451.83701 152.40199"
   version="1.1"
   id="svg37"
   sodipodi:docname="logo_with_text_dark_bg.svg"
   style="fill:none"
   inkscape:version="0.92.5 (2060ec1f9f, 2020-04-08)">
  <metadata
     id="metadata41">
    <rdf:RDF>
      <cc:Work
         rdf:about="">
        <dc:format>image/svg+xml</dc:format>
        <dc:type
           rdf:resource="http://purl.org/dc/dcmitype/StillImage" />
      </cc:Work>
    </rdf:RDF>
  </metadata>
  <sodipodi:namedview
     pagecolor="#ffffff"
     bordercolor="#666666"
     borderopacity="1"
     objecttolerance="10"
     gridtolerance="10"
     guidetolerance="10"
     inkscape:pageopacity="0"
     inkscape:pageshadow="2"
     inkscape:window-width="799"
     inkscape:window-height="480"
     id="namedview39"
     showgrid="false"
     inkscape:zoom="0.5578125"
     inkscape:cx="226"
     inkscape:cy="76.902"
     inkscape:window-x="0"
     inkscape:window-y="0"
     inkscape:window-maximized="0"
     inkscape:current-layer="svg37" />
  <path
     d="M 109.542,101.35 V 51.0614 l 22.44,-12.9601 V 139.451 l -22.44,12.951 z"
     id="path2"
     inkscape:connector-curvature="0"
     style="clip-rule:evenodd;fill:#7d8cb5;fill-rule:evenodd" />
  <path
     d="M 131.982,38.1002 109.542,51.0603 87.762,38.4901 65.991,25.9205 44.211,38.4901 22.441,51.0603 7e-4,38.1002 32.991,19.0501 65.991,0 98.982,19.0501 Z"
     id="path4"
     inkscape:connector-curvature="0"
     style="clip-rule:evenodd;fill:#b2bfe8;fill-rule:evenodd" />
  <path
     d="m 0,38.1002 22.44,12.9601 v 50.2887 l 21.771,12.57 21.78,12.571 v 25.91 l -33,-19.051 L 0,114.299 V 38.0988"
     id="path6"
     inkscape:connector-curvature="0"
     style="clip-rule:evenodd;fill:#d9e2ff;fill-rule:evenodd" />
  <path
     d="m 87.101,114.301 -21.11,12.19 v 25.91 l 21.11,-12.18 v -25.92"
     id="path8"
     inkscape:connector-curvature="0"
     style="clip-rule:evenodd;fill:#7d8cb5;fill-rule:evenodd" />
  <path
     d="M 65.991,76.201 44.881,64.0208 65.991,51.8305 87.101,64.0208 Z"
     id="path10"
     inkscape:connector-curvature="0"
     style="clip-rule:evenodd;fill:#b2bfe8;fill-rule:evenodd" />
  <path
     d="m 44.881,64.0225 21.11,12.1795 v 24.38 L 44.881,88.393 V 64.0225"
     id="path12"
     inkscape:connector-curvature="0"
     style="clip-rule:evenodd;fill:#d9e2ff;fill-rule:evenodd" />
  <path
     d="M 65.991,76.2 87.101,64.0207 V 88.391 l -21.11,12.189 z"
     id="path14"
     inkscape:connector-curvature="0"
     style="clip-rule:evenodd;fill:#7d8cb5;fill-rule:evenodd" />
  <path
     d="m 87.101,140.219 22.44,12.181 V 51.0603 L 87.761,38.4901 65.991,25.9205 44.211,38.4901 22.441,51.0603 v 50.2887 l 21.77,12.57 21.78,12.571 21.11,-12.191 z m 0,-51.83 -21.11,12.19 -21.11,-12.19 v -24.37 l 21.11,-12.1903 21.11,12.1903 v 24.37"
     id="path16"
     inkscape:connector-curvature="0"
     style="clip-rule:evenodd;fill:#c91540;fill-rule:evenodd" />
  <path
     d="m 212.686,116 c 0,5.523 -4.477,10.001 -10,10.001 h -6.836 v -7.808 h -0.244 c -0.732,1.057 -1.708,2.155 -2.928,3.293 -1.139,1.058 -2.521,2.034 -4.148,2.929 -1.545,0.894 -3.294,1.626 -5.246,2.196 -1.871,0.569 -3.823,0.853 -5.856,0.853 -4.392,0 -8.377,-0.732 -11.956,-2.196 -3.579,-1.545 -6.669,-3.66 -9.272,-6.344 -2.521,-2.765 -4.473,-6.018 -5.856,-9.759 -1.383,-3.742 -2.074,-7.849 -2.074,-12.322 0,-4.148 0.61,-8.093 1.83,-11.835 1.301,-3.822 3.091,-7.198 5.368,-10.126 2.359,-2.9275 5.205,-5.2455 8.54,-6.9535 3.335,-1.7893 7.117,-2.684 11.346,-2.684 3.823,0 7.361,0.61 10.614,1.83 3.335,1.1387 6.059,3.1313 8.174,5.9785 h 0.244 V 43.7685 c 0,-5.5229 4.477,-10 10,-10 h 8.3 z M 195.85,96.354 c 0,-4.473 -1.301,-8.092 -3.904,-10.858 -2.521,-2.765 -6.1,-4.148 -10.736,-4.148 -4.636,0 -8.255,1.383 -10.858,4.148 -2.521,2.766 -3.782,6.385 -3.782,10.858 0,4.474 1.261,8.093 3.782,10.858 2.603,2.766 6.222,4.149 10.858,4.149 4.636,0 8.215,-1.383 10.736,-4.149 2.603,-2.765 3.904,-6.384 3.904,-10.858 z"
     id="path18"
     inkscape:connector-curvature="0"
     style="fill:#dc244c" />
  <path
     d="m 224.532,76.708 c 0,-5.5223 4.477,-9.9995 10,-9.9995 h 8.3 v 9.5155 h 0.244 c 1.952,-3.6595 4.27,-6.3842 6.954,-8.1735 2.684,-1.8707 6.059,-2.806 10.126,-2.806 1.057,0 2.114,0.0407 3.172,0.122 1.057,0.0813 2.033,0.244 2.928,0.488 V 82.569 c -1.302,-0.407 -2.603,-0.692 -3.904,-0.855 -1.22,-0.244 -2.522,-0.366 -3.904,-0.366 -3.498,0 -6.263,0.488 -8.296,1.464 -2.034,0.976 -3.62,2.359 -4.758,4.148 -1.058,1.708 -1.749,3.782 -2.074,6.222 -0.326,2.441 -0.488,5.124 -0.488,8.052 V 116 c 0,5.523 -4.477,10.001 -10,10.001 h -8.3 z"
     id="path20"
     inkscape:connector-curvature="0"
     style="fill:#dc244c" />
  <path
     d="m 310.643,118.559 h -0.244 c -2.033,3.172 -4.758,5.449 -8.174,6.832 -3.334,1.382 -6.872,2.073 -10.614,2.073 -2.765,0 -5.449,-0.406 -8.052,-1.219 -2.521,-0.732 -4.758,-1.871 -6.71,-3.416 -1.952,-1.546 -3.497,-3.457 -4.636,-5.735 -1.138,-2.277 -1.708,-4.92 -1.708,-7.929 0,-3.416 0.61,-6.304 1.83,-8.662 1.302,-2.359 3.01,-4.311 5.124,-5.856 2.196,-1.546 4.677,-2.725 7.442,-3.538 2.766,-0.895 5.612,-1.546 8.54,-1.953 3.01,-0.406 5.978,-0.65 8.906,-0.732 3.01,-0.081 5.775,-0.121 8.296,-0.121 0,-3.254 -1.179,-5.816 -3.538,-7.687 -2.277,-1.952 -5.002,-2.928 -8.174,-2.928 -3.009,0 -5.774,0.651 -8.296,1.952 -2.44,1.221 -4.636,2.929 -6.588,5.124 l -9.76,-10.004 c 3.416,-3.1715 7.402,-5.5302 11.956,-7.0755 4.555,-1.6267 9.272,-2.44 14.152,-2.44 5.368,0 9.76,0.6913 13.176,2.074 3.498,1.3013 6.263,3.2533 8.296,5.8555 2.115,2.603 3.579,5.816 4.392,9.638 0.814,3.742 1.22,8.093 1.22,13.054 v 20.135 c 0,5.522 -4.477,10 -10,10 h -6.836 z m -4.514,-18.545 c -1.382,0 -3.131,0.082 -5.246,0.244 -2.033,0.082 -4.026,0.407 -5.978,0.976 -1.87,0.57 -3.497,1.424 -4.88,2.562 -1.301,1.139 -1.952,2.725 -1.952,4.759 0,2.196 0.936,3.822 2.806,4.879 1.871,1.058 3.823,1.586 5.856,1.586 1.79,0 3.498,-0.244 5.124,-0.732 1.708,-0.488 3.213,-1.179 4.514,-2.074 1.302,-0.894 2.318,-2.033 3.05,-3.416 0.814,-1.382 1.22,-3.009 1.22,-4.879 v -3.905 z"
     id="path22"
     inkscape:connector-curvature="0"
     style="fill:#dc244c" />
  <path
     d="m 340.181,76.708 c 0,-5.5223 4.477,-9.9995 10,-9.9995 h 7.568 V 74.76 h 0.244 c 0.569,-1.138 1.382,-2.2768 2.44,-3.4155 1.057,-1.1387 2.318,-2.1553 3.782,-3.05 1.464,-0.8947 3.131,-1.6267 5.002,-2.196 1.87,-0.5693 3.904,-0.854 6.1,-0.854 4.636,0 8.377,0.732 11.224,2.196 2.846,1.3827 5.042,3.3347 6.588,5.8555 1.626,2.522 2.724,5.49 3.294,8.906 0.569,3.416 0.854,7.117 0.854,11.103 V 116 c 0,5.523 -4.477,10.001 -10,10.001 h -8.3 V 96.964 c 0,-1.708 -0.082,-3.456 -0.244,-5.246 -0.082,-1.87 -0.448,-3.578 -1.098,-5.123 -0.57,-1.546 -1.505,-2.807 -2.806,-3.783 -1.22,-0.976 -3.01,-1.464 -5.368,-1.464 -2.359,0 -4.27,0.448 -5.734,1.342 -1.464,0.814 -2.603,1.952 -3.416,3.416 -0.732,1.383 -1.22,2.969 -1.464,4.758 -0.244,1.79 -0.366,3.66 -0.366,5.612 V 116 c 0,5.523 -4.477,10.001 -10,10.001 h -8.3 z"
     id="path24"
     inkscape:connector-curvature="0"
     style="fill:#dc244c" />
  <path
     d="m 451.837,71.3485 c 0,5.5225 -4.477,9.9995 -10,9.9995 h -6.104 v 19.765 c 0,1.626 0.082,3.131 0.244,4.513 0.163,1.302 0.529,2.44 1.098,3.416 0.57,0.976 1.424,1.749 2.562,2.319 1.22,0.488 2.806,0.731 4.758,0.731 0.976,0 2.237,-0.081 3.782,-0.244 1.627,-0.244 2.847,-0.731 3.66,-1.463 v 8.724 c 0,3.915 -2.452,7.557 -6.344,7.989 v 0 c -2.196,0.244 -4.351,0.366 -6.466,0.366 -3.09,0 -5.937,-0.325 -8.54,-0.976 -2.602,-0.65 -4.88,-1.667 -6.832,-3.049 -1.952,-1.464 -3.497,-3.335 -4.636,-5.613 -1.057,-2.277 -1.586,-5.042 -1.586,-8.295 V 81.348 h -11.712 v -4.64 c 0,-5.5224 4.478,-9.9995 10,-9.9995 h 1.712 v -7.568 c 0,-5.5229 4.478,-10 10,-10 h 8.3 v 17.568 h 16.104 z"
     id="path26"
     inkscape:connector-curvature="0"
     style="fill:#dc244c" />
  <path
     d="M 66,126.5 V 100.586 L 45,88.5 v 25.871 z"
     id="path28"
     inkscape:connector-curvature="0"
     style="fill:url(#paint0_linear_425_139)" />
  <defs
     id="defs35">
    <linearGradient
       id="paint0_linear_425_139"
       x1="159"
       y1="128"
       x2="137"
       y2="129"
       gradientUnits="userSpaceOnUse"
       gradientTransform="translate(-94,-27)">
      <stop
         stop-color="#FF3364"
         id="stop30" />
      <stop
         offset="1"
         stop-color="#C91540"
         stop-opacity="0"
         id="stop32" />
    </linearGradient>
  </defs>
</svg>
